svgs/solid/coin-front.svg

<svg xmlns="http://www.w3.org/2000/svg" viewBox="0 0 512 512"><!--! Font Awesome Pro 6.2.0 by @fontawesome - https://fontawesome.com License - https://fontawesome.com/license (Commercial License) Copyright 2022 Fonticons, Inc. --><path d="M512 256c0 141.4-114.6 256-256 256S0 397.4 0 256S114.6 0 256 0S512 114.6 512 256zM256 416c-88.4 0-160-71.6-160-160s71.6-160 160-160s160 71.6 160 160s-71.6 160-160 160zm0 32c106 0 192-86 192-192s-86-192-192-192S64 150 64 256s86 192 192 192zm24-264c0-13.3-10.7-24-24-24s-24 10.7-24 24V328c0 13.3 10.7 24 24 24s24-10.7 24-24V184z"/></svg>

<svg xmlns="http://www.w3.org/2000/svg" viewBox="0 0 512 512"><!--! Font Awesome Pro 6.1.2 by @fontawesome - https://fontawesome.com License - https://fontawesome.com/license (Commercial License) Copyright 2022 Fonticons, Inc. --><path d="M96 256C96 167.6 167.6 96 256 96C344.4 96 416 167.6 416 256C416 344.4 344.4 416 256 416C167.6 416 96 344.4 96 256zM280 184C280 170.7 269.3 160 256 160C242.7 160 232 170.7 232 184V328C232 341.3 242.7 352 256 352C269.3 352 280 341.3 280 328V184zM512 256C512 397.4 397.4 512 256 512C114.6 512 0 397.4 0 256C0 114.6 114.6 0 256 0C397.4 0 512 114.6 512 256zM256 448C362 448 448 362 448 256C448 149.1 362 64 256 64C149.1 64 64 149.1 64 256C64 362 149.1 448 256 448z"/></svg>
